/*
	習作として作ってみました。
*/
TrackName = {"rtune3"}
MetaText  = {"習作2"}

TEMPO=140	//テンポの設定（数値には、漢数字も使えます。）
拍子４，４		//４分の４拍子に設定

音源初期化
TR=9 CH=9 @34 o2 l8 [16 f>f<] [16 e>e<] [16 f>f<] [16 e>e<]
TR=10 CH=10 o3 l8[7 cg+d+g+] cg+d+8d+16d+16 [7 cg+d+g+] cg+d+8d+16d+16 [7 cg+d+g+] cg+d+8d+16d+16 [7 cg+d+g+] cg+d+8d+16d+16