// 暖房

TR(1) TEMPO=60 @11 
      l8 o6    e4c+4d4a4 g+4f+4e4r4
               f+4f+ef+4d4 e4d4c+4<b4
              ab>c+de4r4 def+ag+4f+e
               f+4e4d4.<g+ a4r4
TR(2) @11 o5 l8 <a>c+ec+ df+af+ eg+bg+ <a>c+ec+
                f+a>c+<a df+af+ eg+bg+ eg+bg+
                f+a>c+<a eg+bg+ df+af+ c+eae 
                <b>df+d eg+bg+ [2 <a>c+ec+] 