// 早起き
TR(1) TEMPO=60 @11 
      l8 o6     g4gab4f4 e4efg4r4
                d4efgfed c4cde4d4
                e4ef+g+4r4 g+4g+ab4f4
                efgagfed c4<b4>c4r4
TR(2) @11 o5 l8 egbg fa>c<a cege gb>d<b
                dfaf gb>d<b cege cfaf
                cege eg+bg+ a>c+ec+< dfaf  
                cege fa>c<a dfgb cege            