// きっかけ
TR(1) TEMPO=60 @11 
      l8 o6     <gab>cd4r4 cdefg4r4 
              fedf edc<g ab>ced4r4
              fefed4r4 ededc4r4 
              agfed4g4 c4r4
TR(2) @11 o5 l8 cege c4g4 egbge4b4
                fa>c<af4d4 <gb>d<bg4>r4
                fa>c<a f4r4 egbge4r4
                dfaf gb>d<b cegec4r4