// 苦悩(第三の男)
TR(1) TEMPO=60 @11 
      l8 o6 edc<ag4r4> fedcd4r4
            e4eedefe dc<bag4r4> 
            cdecde4f gfefedcd
            fedc dc<bg> c4r4      
TR(2) @11 o5 l8 cege c4de <fa>c<a> dfaf      
                egbg fa>c<a dfaf gb>d<b
                cege df4a egbg fa>c<a
                dfaf <gb>d<b> cege cege