// 味方(ピンクパンサー)
TR(1) TEMPO=60 @11 
      l8 o6 cdedcded cde-dcde-g
            a-gfe- fe-dc <b>cdef4e4
            efg>c<b4>cd e-dc<ba-4g4
            f4efgfedc4r4
TR(2) @11 o5 l8  cegec4r4 ce-ge-c4r4
                <a->ce-c<a-4>ce- <gb>d<bg4>r4
                 cegecege gb>d<bgb>d<b
                 dfaf gb>d<b cegecege