// 昔通った道

TR(1) TEMPO=60 @11 
      l8 o6     c+deg+ e4dc+ dc+<ba> c+4r4
                dc+de f+edc+ <bab>c+ dc+c+<b>
                <ab>c+de4r4 c+def+g+4a4
                edc+d c+<bag+ a4r4
TR(2) @11 o5 l8 <a>c+ec+ df+af+ eg+bg+ <a>c+ec+
                df+af+ eg+bg+ c+eg+e f+a>c+<a
                [2 df+af+ eg+bg+]
                <b>df+d eg+bg+ [2 <a>c+ec+]    