// 虫とり

TR(1) TEMPO=60 @11 
      l8 o6     g+f+eag+f+ed+ c+d+eg+ f+4e4  
                d+ed+e ag+f+e d+ed+e f+4r4 
                g+ag+a b>c+d+e f+ed+e4 d+c+<b
                bag+a g+f+ed+ e4r4  
TR(2) @11 o5 l8 eg+bg+ ea>c+<a <b>d+f+d+ eg+bg+
                <a>c+ec+ <f+a>c+<a> <b>d+f+d+ <b b>c+d+
                eg+bg+ f+a>c+<a g+b>d+<b a>c+ec+<
                f+a>c+<a <b>d+f+d+ eg+bg+ eg+bg+