// 仲間

TR(1) TEMPO=60 @11 
      l8 o6   c+4<b4>e4d4 c+4<b4a4r4>
               f+4e4d4c+4<b4r4 r2
               a4ab>c+4r4 c+4c+de4d4
               c+4<b4a4g+4 a4r4r2
TR(2) @11 o5 l8 <a>c+ec+ df+af+ eg+bg+ <a>c+ec+
                df+af+ <b>df+d eg+bg+ >c+<g+bg+    
                f+a>c+<a eg+>c+<g+ df+af+ c+eae 
                <b>df+d eg+bg+ <a>c+ec+ ac+ec+        