// 想い
TR(1) TEMPO=60 @11 
      l8 o6   efge fgaf gabg >c4<ba 
              ag+f+g+ f+g+f+e d4ef e4d4
              gabg e4r4 defag4f4
              c4defedc <babg> c4r4
TR(2) @11 o5 l8 cege dfaf egbg fa>c<a 
                eg+bg+ <a>c+ec+ dfaf gb>d<b 
                cege egbg dfaf gb>d<b
                cege dfaf <gb>d<b> cege