// 押し入れ
TR(1) TEMPO=60 @11 
      l8 o6   g4agf4e4 f4gfd4r4
              c4defedc <bab>c d4r4
              efed efga gfed g4e4
              fede dc<bg> c4r4
TR(2) @11 o5 l8 egbg fa>c<r dfaf gb>d<b
                cege <a>cec dfaf gb>d<b
                fa>c<a egbg dfaf egbg
                dfaf <gb>d<b> cege cege