// ルーティーン
TR(1) TEMPO=60 @11 
      l8 o6   gfedc+4r4 agfed4r4 
                gfedcd4e fedcd4r4
              efgag4fe fedgd4r4
              cdefgfed c4<b4>c4r4
TR(2) @11 o5 l8  cege <a>c+ec+ fa>c<a gb>d<b 
                 cege fa>c<a dfaf gb>d<b 
                 egbg dfaf cege gb>d<b
                 dfaf gb>d<b cege cege 