// 成長たぬき
TR(1) TEMPO=60 @11 
      l8 o6      cdcde4r4 efefg4r4
                 fedede4f edefg4r4
                 a4gfe4r4 f4edc4r4
               <b>cdefedc <b>cd<b>c4r4
TR(2) @11 o5 l8 cegec4r4 <gb>d<bg4d4>
                dfafdfaf gb>d<bg4r4
               <a>cec<a4>r4 <fa>c<af4r4>
               dfafdfaf <gb>d<b> cege