// そうね！(チャレンジト長調)

TR(1) TEMPO=60 @11 
      l8 o6     b>cd<b >c4e4 dc<ba b4g4 
                gagf+ gab>c< baba b4a4
                b>cdg d4c<b >c<bga g4f+4
                gagf+ gabg agf+d g4r4
TR(2) @11 o5 l8 gb>d<b cege df+af+ gb>d<b
                egbg cege <a>cec df+af+
                gb>d<b cege <a>cec df+af+
                egbg cege <a>cdf+ gb>d<b