//住めば都
TR(1) TEMPO=60 @11 
      l8 o5gggg>c4 < b-4 a4gfg4r4 >
           c4cde4<g4 >f4ede4r4 
           c4cde4r4 f4fed4r4  
           c4cde4d4 c4<b4>c4r4
TR(2) @11 l8 o4 cege gb->d<b- fa>c<a gb>d<b
                a>cec< gb>d<b fa>c<a gb>d<b
                a>cec< b->dfd<fa>c<a gb>d<b
                cege fa>c<a dfgb cege