// 産声

TR(1) TEMPO=60 @11 
      l8 o6     ab-ab-a4g4 gagag4f4
                fgfgagfe defag4f4
                efefg4a4 b->cde d4c4<
                b-ab->cdc<b-e f4r4         
TR(2) @11 o5 l8 fa>c<a gb->d<b- egb-g <a>cec 
                dfaf gb->d<b- cege fa>c<a
                dfaf <b->dfd <gb->d<b-> cege 
               < b->dfd cege fa>c<a fa>c<a