// 飛躍
TR(1) TEMPO=60 @11 
      l8 o6 ceg>c<b4g4 cegba4r4
      g4fedefd e4f4g4r4
            ceg>cd4e4 fedc<b4a4
            g4 fedefdc4r4
TR(2) @11 o5 l8  cege cege cfaf cfaf
                 cgbg cgbg cfaf cfaf
                 cege cege cfaf cfaf 
                 <b>dgd <b>dgd cege cege