// じだんだ
TR(1) TEMPO=60 @11 
      l8 o6 cccc eeee gged c4r4
            fffe dcdc dc<b>c d4r4
            eeee ffff gagf e4d4
            c4defedc c4<b4>c4r4
TR(2) @11 o5 l8 cege eg+bg+ dfaf cege
                fa>c<a dfaf<gb>d<b> <gb>d<b>
                egbg fa>c<a gb>d<b gb>d<b
                cege dfaf <gb>d<b> cege