// 隠し事
TR(1) TEMPO=60 @11 
      l8 o6 efgag4r4 fedcd4r4
            c4de fedc+ <bab>c d4r4
            efgec4r4 efgag4>c4<
           >dc<bagfed c4<b4>c4r4
TR(2) @11 o5 l8 egbg cege dfaf gb>d<b
                cege <a>c+ec+ dfaf gb>d<b
                egbg cege fa>c<a gb>d<b
                cege dfaf gb>d<b cege