// 叔父
TR(1) TEMPO=60 @11 
      l8 o6 g4gfe4r4 defge4d4
           c4defedga4gfe4r4
            g4gab4g4>c4<bag4f4
           e4ef eded c4<b4>c4r4
TR(2) @11 o5 l8 egbg cege fa>c<a dfaf
                gb>d<b egbg fa>c<a gb>d<b
                cege fa>c<a df+af+ gb>d<b
                egbg dfaf gb>d<b cege    