// お買い物
TR(1) TEMPO=60 @11 
      l8 o6 c4cdg4f4 e4ede4r4
            f4fed4c+4 <b4>cde4d4
            c4dec4r4 c4deg4fe
           <a4b>cdefe d4<b4>c4r4
TR(2) @11 o5 l8  cege <a>cec fa>c<a gb>d<b
              egbg <a>c+ec+  dfaf gb>d<b
              fa>c<a egbg fa>c<a egbg
              <a>cec fa>c<a dfgb cege