// お化粧
TR(1) TEMPO=60 @11 
      l8 o6 gfedc+4r4 fedcd4r4
            ag+f+e f+edc+ dc<b>c d4r4
              efef e4d4 cdcde4r4
            fedc<bab>c d4<b4>c4r4

TR(2) @11 o5 l8 cege <a>c+ec+ dfaf gb>d<b
                eg+bg+ <a>c+ec+ dfaf <gb>d<b>
                <a>cec egbg fa>c<a  gb>d<b
                egbg <a>cec dfgb cege    