// 瞬間
TR(1) TEMPO=60 @11 
      l8 o6 cdege4dc <b>cdc<b4> r4
            efef gfed fedf e4d4
            ededc4r4 edefg4fe
            agfg fgfe ded<b>c4r4
TR(2) @11 o5 l8 egbg fa>c<a dfaf gb>d<b
              cege a>c+ec+< dfaf gb>d<b
                [3 fa>c<a egbg] dfgb cege 