/*

Famic.lib by BEEPBOY

(original "Famic" Wiz.)

*/
#title		"wind dream"
#Composer	"rana"
#Copyright	"nsd.lib, Copyright (c) 2012 S.W. All rights reserved."


/* --- common initialize --- --- --- --- --- --- --- --- */

#code "nsd_all2.bin"
#Bank
#BGM		1

#Timebase 30

$init { t120 Rv0 l8 }

$init_n163 { NC8 }

; FDS inst

FDSC(1) { 32 52 63 63 63 63 63 63 58 44 32 20 14 08 06 10
          18 30 42 52 60 63 63 62 58 50 42 36 32 28 24 24
          28 32 36 40 44 44 40 36 32 26 20 16 12 10 10 10
          10 12 14 14 16 16 12 10 10 06 04 02 00 00 00 12 }	; a

FDSC(2) { 32 41 45 35 35 44 53 56 54 60 62 63 63 63 63 63
          63 62 61 63 63 61 56 54 45 42 39 45 41 30 21 27
          29 21 18 18 17 12 06 14 11 12 08 03 14 15 11 11
          21 14 08 15 33 32 18 11 18 29 27 23 18 21 26 21 }	; i

FDSC(3) { 32 38 45 53 55 58 60 62 63 63 63 63 63 63 63 63
          63 63 62 62 60 58 53 48 47 45 41 39 38 36 32 30
          30 29 27 27 27 26 24 24 23 21 20 18 17 14 12 09
          06 03 02 00 00 00 00 00 00 00 03 04 08 14 20 26 }	; u

FDSC(4) { 30 36 32 33 38 38 39 36 31 22 24 25 27 28 30 38
          45 39 59 58 63 63 60 53 47 60 54 47 41 30 18 10
          07 00 05 06 07 11 15 20 25 36 38 47 43 42 39 42
          41 29 29 29 14 08 11 12 06 06 14 15 14 18 20 24 }	; e

FDSC(5) { 36 48 53 62 63 63 63 63 63 63 63 62 58 40 35 28
          18 06 04 00 00 00 00 00 00 02 08 17 28 33 38 39
          41 46 46 48 48 46 46 45 44 40 35 30 26 23 17 14
          11 08 06 03 00 00 00 00 00 00 00 00 00 03 17 23 }	; o

FDSC(12) { 32 46 54 49 49 53 58 59 56 52 47 41 38 35 34 36
		   40 46 51 57 61 62 59 58 51 46 40 40 36 29 22 25
		   28 26 27 29 30 28 23 25 21 19 14 09 13 12 10 10
		   15 13 11 14 24 24 15 10 14 17 15 12 09 10 13 16 } ; ai

FDSC(13) { 32 45 54 58 59 60 61 62 60 53 47 41 38 35 34 36
		   40 46 52 57 60 60 58 55 52 47 41 37 35 32 28 27
		   29 30 31 33 35 35 32 30 27 23 20 17 14 12 11 09
		   08 07 08 07 08 08 06 05 05 03 03 03 04 07 10 19 } ; au

FDSC(14) { 31 44 47 48 50 50 51 49 44 33 28 22 20 18 18 24
		   31 34 50 55 61 63 61 57 52 55 48 41 36 29 21 17
		   17 16 20 23 25 27 27 28 28 31 29 31 27 26 24 26
		   25 20 21 21 15 12 11 11 08 06 09 08 07 09 10 18 } ; ae

FDSC(15) { 34 50 58 62 63 63 63 63 60 53 47 41 36 24 20 19
		   18 18 23 26 30 31 31 31 29 26 25 26 30 30 31 31
		   34 39 41 44 46 45 43 40 38 33 27 23 19 16 13 12
		   10 10 10 08 08 08 06 05 05 03 02 01 00 01 08 17 } ; ao

FDSC(23) { 32 39 45 44 45 51 56 59 58 61 62 63 63 63 63 63
		   63 62 61 62 61 59 54 51 46 43 40 42 39 33 26 28
		   29 25 22 22 22 19 15 19 17 16 14 10 15 14 11 10
		   13 08 05 07 16 16 09 05 09 14 15 13 13 17 23 23 } ; iu

FDSC(24) { 31 38 38 34 36 41 46 46 42 41 43 44 45 45 46 50
		   54 50 60 60 63 62 58 53 46 51 46 46 41 30 19 18
		   18 10 11 12 12 11 10 17 18 24 23 25 28 28 25 26
		   31 21 18 22 23 20 14 11 12 17 20 19 16 19 23 22 } ; ie

FDSC(25) { 34 44 49 48 49 53 58 59 58 61 62 62 60 51 49 45
		   40 34 32 31 31 30 28 27 22 22 23 31 34 31 29 33
		   35 33 32 33 32 29 26 29 27 26 21 16 20 19 14 12
		   16 11 07 09 16 16 09 05 09 14 13 11 09 12 21 22 } ; io

FDSC(34) { 31 37 38 43 46 48 49 49 47 42 43 44 45 45 46 50
		   54 51 60 60 61 60 56 50 47 52 47 43 39 33 25 20
		   18 14 16 16 17 18 19 22 24 28 29 32 30 28 25 25
		   23 16 15 14 07 04 05 06 03 03 08 09 11 16 20 25 } ; ue

FDSC(35) { 34 43 49 57 59 60 61 62 63 63 63 62 60 51 49 45
		   40 34 33 31 30 29 26 24 23 23 24 28 33 34 35 34
		   35 37 36 37 37 36 35 34 33 30 27 24 21 18 14 11
		   08 05 04 01 00 00 00 00 00 00 01 02 04 08 18 24 } ; uo

FDSC(45) { 31 37 38 43 46 48 49 49 47 42 43 44 45 45 46 50
		   54 51 60 60 61 60 56 50 47 52 47 43 39 33 25 20
		   18 14 16 16 17 18 19 22 24 28 29 32 30 28 25 25
		   23 16 15 14 07 04 05 06 03 03 08 09 11 16 20 25 } ; eo

FDSC(100) { 32 33 34 35 35 35 34 33 30 29 29 29 33 35 35 30
          28 30 33 35 38 39 34 28 21 16 17 24 30 33 36 39
          38 36 35 30 24 27 32 35 41 46 44 36 32 30 27 27
          32 35 34 34 33 29 27 30 32 33 34 32 28 28 29 30 }	; k

FDSC(101) { 32 35 39 41 40 35 32 33 38 36 32 24 22 24 33 36
          35 33 33 34 35 36 39 40 35 29 27 27 27 26 23 23
          27 30 34 39 44 41 35 33 33 30 30 34 35 34 29 24
          21 24 30 40 46 44 33 30 36 40 39 34 28 21 17 22 }	; kk

FDSC(102) { 33 34 35 35 36 36 36 36 35 36 36 35 33 32 33 33
          33 33 35 36 38 38 38 38 39 39 39 39 39 39 39 38
          38 38 36 35 35 34 33 32 33 33 32 30 30 29 28 27
          27 26 26 24 23 22 22 20 17 16 15 14 14 12 12 20 }	; kkk

FDSC(110) { 30 29 29 33 36 35 30 29 30 33 33 29 32 34 34 29
          32 34 32 32 34 34 30 32 33 30 28 29 33 33 30 30
          30 30 33 35 35 33 33 33 29 28 30 33 35 35 32 28
          30 34 30 30 34 36 32 28 30 33 33 32 30 30 33 33 }	; s

FDSC(111) { 33 36 36 35 38 35 29 29 38 41 36 32 32 33 34 34
          38 39 35 33 33 28 24 30 36 34 32 30 29 30 29 30
          32 32 29 29 33 34 35 35 34 34 38 36 36 40 42 36
          33 33 30 29 32 35 34 32 26 23 24 32 35 33 27 26 }	; ss

FDSC(112) { 32 35 39 41 39 34 33 33 34 39 41 36 29 28 27 24
          24 27 28 30 34 34 29 30 34 39 42 48 46 41 39 34
          30 33 40 41 44 46 42 38 30 26 27 32 33 33 34 35
          34 33 35 36 38 35 27 23 26 22 21 22 24 23 24 28 }	; sss

FDSC(120) { 33 41 44 38 40 42 34 28 26 24 22 24 22 18 22 34
          36 33 32 28 24 30 44 46 45 48 48 45 48 52 42 38
          46 47 39 36 40 35 32 36 40 34 29 28 29 32 34 29
          24 22 22 29 34 30 20 27 40 39 35 35 34 32 33 33 }	; t

FDSC(121) { 30 33 35 36 36 38 40 41 39 33 30 34 38 38 33 29
          29 28 27 29 33 33 32 34 39 36 35 36 36 32 33 39
          40 36 35 38 40 40 38 33 28 32 34 30 27 28 33 36
          33 30 29 29 29 29 27 24 27 30 33 33 34 33 30 27 }	; tt

FDSC(122) { 33 38 38 39 42 41 40 40 41 36 30 26 22 24 32 35
          33 33 33 33 34 34 28 24 30 34 33 29 30 33 34 36
          39 39 38 36 38 40 39 36 30 27 29 33 34 33 30 32
          34 35 35 38 39 38 34 33 33 30 27 23 22 23 27 29 }	; ttt

FDSC(0) { 30 36 42 48 54 58 62 63 63 63 63 63 63 63 63 63
          63 62 60 56 54 52 48 46 42 40 38 36 34 32 30 28
          26 24 22 22 20 20 18 18 16 16 14 14 12 12 10 08
          06 06 04 04 02 00 00 00 00 00 02 08 12 16 20 26 }	; n

FDSC(130) { 32 32 33 33 34 34 35 35 34 34 33 33 33 33 33 33
          33 33 33 32 32 32 32 32 32 33 34 34 34 34 33 33
          32 32 32 32 33 33 34 34 34 33 33 33 33 33 34 34
          34 34 33 33 32 30 30 30 33 33 34 34 34 34 34 33 }	; h

FDSC(131) { 30 32 34 35 35 35 38 38 38 35 33 30 28 27 27 28
          29 30 34 36 38 38 38 36 33 30 30 32 32 30 30 30
          29 30 33 34 35 36 39 39 38 35 34 32 30 30 29 29
          30 33 34 33 32 32 32 32 34 36 38 38 35 33 32 32 }	; hh

FDSC(132) { 30 33 34 35 36 34 30 30 33 30 28 28 24 23 27 33
          38 39 40 42 41 36 33 33 30 27 27 29 30 29 28 29
          29 29 32 34 32 29 29 32 33 34 38 39 33 28 26 26
          28 32 34 34 35 34 29 28 33 34 32 30 30 29 28 29 }	; hhh

FDSC(6) { 32 34 36 38 40 42 44 46 48 50 52 54 56 56 58 58
          58 58 58 58 58 58 56 56 54 52 50 48 46 44 42 40
          36 34 32 28 26 24 22 18 16 14 12 10 08 06 06 04
          04 04 02 02 02 04 04 06 08 10 12 14 16 18 22 24 }	; m

FDSC(140) { 32 38 42 48 52 56 58 60 60 60 60 58 56 54 52 48
          46 44 42 40 38 38 36 36 36 38 38 38 40 42 42 44
          44 44 44 44 44 42 40 40 38 36 32 30 26 24 20 18
          16 14 10 08 06 06 04 02 00 00 02 06 10 14 20 26 }	; l

FDSC(105) { 33 38 45 48 46 38 33 35 41 41 32 21 16 21 34 41
          38 34 34 35 38 40 44 46 39 28 24 24 23 22 20 18
          24 30 36 44 52 47 36 35 35 30 30 36 38 35 29 20
          15 20 30 47 54 51 34 30 40 45 44 35 26 14 10 17 }	; g

FDSC(106) { 33 38 45 48 46 38 33 35 41 41 32 21 16 21 34 41
          38 34 34 35 38 40 44 46 39 28 24 24 23 22 20 18
          24 30 36 44 52 47 36 35 35 30 30 36 38 35 29 20
          15 20 30 47 54 51 34 30 40 45 44 35 26 14 10 17 }	; gg

FDSC(115) { 27 22 23 40 58 51 29 22 26 39 38 23 32 47 46 22
          33 50 35 35 48 47 28 33 41 27 17 23 38 38 29 27
          28 29 39 56 52 41 42 39 22 15 26 40 53 54 34 14
          30 45 24 24 46 62 33 16 29 39 40 38 27 28 42 40 }	; z

FDSC(116) { 34 41 42 41 46 40 26 27 44 52 42 32 32 35 36 38
          45 47 40 35 34 24 17 29 41 38 33 29 28 29 28 29
          33 33 26 27 34 36 39 40 38 39 45 41 42 50 56 42
          35 35 29 27 33 40 39 32 21 14 17 32 40 35 22 20 }	; zz

FDSC(125) { 34 46 50 41 45 48 35 27 23 21 18 22 18 14 18 35
          39 33 33 27 22 30 50 53 51 56 56 52 57 62 47 41
          53 54 42 39 44 36 33 39 45 35 28 27 29 32 35 28
          22 18 18 29 36 29 15 26 44 41 36 38 36 32 34 33 }	; d

FDSC(126) { 30 36 42 44 46 48 54 56 51 36 30 39 48 48 36 27
          27 24 21 27 36 35 32 40 50 45 42 46 44 34 36 52
          53 46 42 47 53 54 47 35 23 32 39 29 20 23 36 45
          36 30 27 26 27 27 20 15 18 30 34 36 38 38 29 21 }	; dd

FDSC(135) { 35 36 42 46 50 56 58 57 56 51 45 41 42 42 40 41
          45 46 44 38 35 36 38 35 38 47 52 53 52 51 47 42
          36 33 33 38 41 45 51 52 48 42 42 44 44 46 51 53
          51 50 47 41 36 28 26 30 40 47 51 56 56 52 48 44 }	; b/p

FDSC(136) { 30 34 38 40 41 42 47 48 46 40 35 30 24 21 21 23
          27 30 39 45 47 47 47 44 35 29 30 33 32 30 30 28
          27 29 35 39 40 45 50 51 47 42 38 33 29 28 28 28
          30 35 38 34 33 32 32 33 38 44 47 47 41 35 33 32 }	; bb/pp

/*
* = reset, bias range -64 - +63
data :  0  1  2  3  4  5  6  7
table:  0 +1 +2 +4 *0 -4 -2 -1
*/

FDSM(0) {
4,0,0,0,0,0,0,0, 0,0,0,0,0,0,0,0,
0,0,0,0,0,0,0,0, 0,0,0,0,0,0,0,0
}

FDSM(1) { // sine
4,3,3,3,2,2,1,0, 0,0,0,7,6,6,5,5,
5,5,5,5,6,6,7,0, 0,0,0,1,2,2,3,3
}

FDSM(2) { // saw g
4,3,3,3,3,3,3,3, 3,3,3,3,3,3,3,3,
3,3,3,3,3,3,3,3, 3,3,3,3,3,3,3,3
}

FDSM(3) { // noise s,z
4,6,7,2,1,7,1,7, 6,5,3,1,5,6,7,2,
6,5,3,7,3,5,1,2, 1,3,5,6,2,3,3,2
}

; N16x inst

N163(1) { 8, 13, 15, 15, 15, 15, 15, 15, 14, 11, 8, 5, 3, 2, 1, 2, 4, 7, 10, 13, 15, 15, 15, 15, 14, 12, 10, 9, 8, 7, 6, 6, 7, 8, 9, 10, 11, 11, 10, 9, 8, 6, 5, 4, 3, 2, 2, 2, 2, 3, 3, 3, 4, 4, 3, 2, 2, 1, 1, 0, 0, 0, 0, 3 }	; a

N163(2) { 8, 10, 11, 8, 8, 11, 13, 14, 13, 15, 15, 15, 15, 15, 15, 15, 15, 15, 15, 15, 15, 15, 14, 13, 11, 10, 9, 11, 10, 7, 5, 6, 7, 5, 4, 4, 4, 3, 1, 3, 2, 3, 2, 0, 3, 3, 2, 2, 5, 3, 2, 3, 8, 8, 4, 2, 4, 7, 6, 5, 4, 5, 6, 5 }	; i

N163(3) { 8, 9, 11, 13, 13, 14, 15, 15, 15, 15, 15, 15, 15, 15, 15, 15, 15, 15, 15, 15, 15, 14, 13, 12, 11, 11, 10, 9, 9, 9, 8, 7, 7, 7, 6, 6, 6, 6, 6, 6, 5, 5, 5, 4, 4, 3, 3, 2, 1, 0, 0, 0, 0, 0, 0, 0, 0, 0, 0, 1, 2, 3, 5, 6 }	; u

N163(4) { 7, 9, 8, 8, 9, 9, 9, 9, 7, 5, 6, 6, 6, 7, 7, 9, 11, 9, 14, 14, 15, 15, 15, 13, 11, 15, 13, 11, 10, 7, 4, 2, 1, 0, 1, 1, 1, 2, 3, 5, 6, 9, 9, 11, 10, 10, 9, 10, 10, 7, 7, 7, 3, 2, 2, 3, 1, 1, 3, 3, 3, 4, 5, 6 }	; e

N163(5) { 9, 12, 13, 15, 15, 15, 15, 15, 15, 15, 15, 15, 14, 10, 8, 7, 4, 1, 1, 0, 0, 0, 0, 0, 0, 0, 2, 4, 7, 8, 9, 9, 10, 11, 11, 12, 12, 11, 11, 11, 11, 10, 8, 7, 6, 5, 4, 3, 2, 2, 1, 0, 0, 0, 0, 0, 0, 0, 0, 0, 0, 0, 4, 5 }	; o


N163(12) { 8, 11, 13, 12, 12, 13, 14, 14, 14, 13, 11, 10, 9, 8, 8, 9, 10, 11, 12, 14, 15, 15, 14, 14, 12, 11, 10, 10, 9, 7, 5, 6, 7, 6, 6, 7, 7, 7, 5, 6, 5, 4, 3, 2, 3, 3, 2, 2, 3, 3, 2, 3, 6, 6, 3, 2, 3, 4, 3, 3, 2, 2, 3, 4 } ; ai

N163(13) { 8, 11, 13, 14, 14, 15, 15, 15, 15, 13, 11, 10, 9, 8, 8, 9, 10, 11, 13, 14, 15, 15, 14, 13, 13, 11, 10, 9, 8, 8, 7, 6, 7, 7, 7, 8, 8, 8, 8, 7, 6, 5, 5, 4, 3, 3, 2, 2, 2, 1, 2, 1, 2, 2, 1, 1, 1, 0, 0, 0, 1, 1, 2, 4 } ; au

N163(14) { 7, 11, 11, 12, 12, 12, 12, 12, 11, 8, 7, 5, 5, 4, 4, 6, 7, 8, 12, 13, 15, 15, 15, 14, 13, 13, 12, 10, 9, 7, 5, 4, 4, 4, 5, 5, 6, 6, 6, 7, 7, 7, 7, 7, 6, 6, 6, 6, 6, 5, 5, 5, 3, 3, 2, 2, 2, 1, 2, 2, 1, 2, 2, 4 } ; ae

N163(15) { 8, 12, 14, 15, 15, 15, 15, 15, 15, 13, 11, 10, 9, 6, 5, 4, 4, 4, 5, 6, 7, 7, 7, 7, 7, 6, 6, 6, 7, 7, 7, 7, 8, 9, 10, 11, 11, 11, 10, 10, 9, 8, 6, 5, 4, 4, 3, 3, 2, 2, 2, 2, 2, 2, 1, 1, 1, 0, 0, 0, 0, 0, 2, 4 } ; ao

N163(23) { 8, 9, 11, 11, 11, 12, 14, 14, 14, 15, 15, 15, 15, 15, 15, 15, 15, 15, 15, 15, 15, 14, 13, 12, 11, 10, 10, 10, 9, 8, 6, 7, 7, 6, 5, 5, 5, 4, 3, 4, 4, 4, 3, 2, 3, 3, 2, 2, 3, 2, 1, 1, 4, 4, 2, 1, 2, 3, 3, 3, 3, 4, 5, 5 } ; iu

N163(24) { 7, 9, 9, 8, 9, 10, 11, 11, 10, 10, 10, 11, 11, 11, 11, 12, 13, 12, 15, 15, 15, 15, 14, 13, 11, 12, 11, 11, 10, 7, 4, 4, 4, 2, 2, 3, 3, 2, 2, 4, 4, 6, 5, 6, 7, 7, 6, 6, 7, 5, 4, 5, 5, 5, 3, 2, 3, 4, 5, 4, 4, 4, 5, 5 } ; ie

N163(25) { 8, 11, 12, 12, 12, 13, 14, 14, 14, 15, 15, 15, 15, 12, 12, 11, 10, 8, 8, 7, 7, 7, 7, 6, 5, 5, 5, 7, 8, 7, 7, 8, 8, 8, 8, 8, 8, 7, 6, 7, 6, 6, 5, 4, 5, 4, 3, 3, 4, 2, 1, 2, 4, 4, 2, 1, 2, 3, 3, 2, 2, 3, 5, 5 } ; io

N163(34) { 7, 9, 9, 10, 11, 12, 12, 12, 11, 10, 10, 11, 11, 11, 11, 12, 13, 12, 15, 15, 15, 15, 14, 12, 11, 13, 11, 10, 9, 8, 6, 5, 4, 3, 4, 4, 4, 4, 4, 5, 6, 7, 7, 8, 7, 7, 6, 6, 5, 4, 3, 3, 1, 1, 1, 1, 0, 0, 2, 2, 2, 4, 5, 6 } ; ue

N163(35) { 8, 10, 12, 14, 14, 15, 15, 15, 15, 15, 15, 15, 15, 12, 12, 11, 10, 8, 8, 7, 7, 7, 6, 6, 5, 5, 6, 7, 8, 8, 8, 8, 8, 9, 9, 9, 9, 9, 8, 8, 8, 7, 6, 6, 5, 4, 3, 2, 2, 1, 1, 0, 0, 0, 0, 0, 0, 0, 0, 0, 1, 2, 4, 6 } ; uo

N163(45) { 7, 9, 9, 10, 11, 12, 12, 12, 11, 10, 10, 11, 11, 11, 11, 12, 13, 12, 15, 15, 15, 15, 14, 12, 11, 13, 11, 10, 9, 8, 6, 5, 4, 3, 4, 4, 4, 4, 4, 5, 6, 7, 7, 8, 7, 7, 6, 6, 5, 4, 3, 3, 1, 1, 1, 1, 0, 0, 2, 2, 2, 4, 5, 6 } ; eo


N163(100) { 8, 8, 8, 8, 8, 8, 8, 8, 7, 7, 7, 7, 8, 8, 8, 7, 7, 7, 8, 8, 9, 9, 8, 7, 5, 4, 4, 6, 7, 8, 9, 9, 9, 9, 8, 7, 6, 6, 8, 8, 10, 11, 11, 9, 8, 7, 6, 6, 8, 8, 8, 8, 8, 7, 6, 7, 8, 8, 8, 8, 7, 7, 7, 7 }	; k

N163(101) { 8, 8, 9, 10, 10, 8, 8, 8, 9, 9, 8, 6, 5, 6, 8, 9, 8, 8, 8, 8, 8, 9, 9, 10, 8, 7, 6, 6, 6, 6, 5, 5, 6, 7, 8, 9, 11, 10, 8, 8, 8, 7, 7, 8, 8, 8, 7, 6, 5, 6, 7, 10, 11, 11, 8, 7, 9, 10, 9, 8, 7, 5, 4, 5 }	; kk

N163(102) { 8, 8, 8, 8, 9, 9, 9, 9, 8, 9, 9, 8, 8, 8, 8, 8, 8, 8, 8, 9, 9, 9, 9, 9, 9, 9, 9, 9, 9, 9, 9, 9, 9, 9, 9, 8, 8, 8, 8, 8, 8, 8, 8, 7, 7, 7, 7, 6, 6, 6, 6, 6, 5, 5, 5, 5, 4, 4, 3, 3, 3, 3, 3, 5 }	; kkk

N163(110) { 7, 7, 7, 8, 9, 8, 7, 7, 7, 8, 8, 7, 8, 8, 8, 7, 8, 8, 8, 8, 8, 8, 7, 8, 8, 7, 7, 7, 8, 8, 7, 7, 7, 7, 8, 8, 8, 8, 8, 8, 7, 7, 7, 8, 8, 8, 8, 7, 7, 8, 7, 7, 8, 9, 8, 7, 7, 8, 8, 8, 7, 7, 8, 8 }	; s

N163(111) { 8, 9, 9, 8, 9, 8, 7, 7, 9, 10, 9, 8, 8, 8, 8, 8, 9, 9, 8, 8, 8, 7, 6, 7, 9, 8, 8, 7, 7, 7, 7, 7, 8, 8, 7, 7, 8, 8, 8, 8, 8, 8, 9, 9, 9, 10, 10, 9, 8, 8, 7, 7, 8, 8, 8, 8, 6, 5, 6, 8, 8, 8, 6, 6 }	; ss

N163(112) { 8, 8, 9, 10, 9, 8, 8, 8, 8, 9, 10, 9, 7, 7, 6, 6, 6, 6, 7, 7, 8, 8, 7, 7, 8, 9, 10, 12, 11, 10, 9, 8, 7, 8, 10, 10, 11, 11, 10, 9, 7, 6, 6, 8, 8, 8, 8, 8, 8, 8, 8, 9, 9, 8, 6, 5, 6, 5, 5, 5, 6, 5, 6, 7 }	; sss

N163(120) { 8, 10, 11, 9, 10, 10, 8, 7, 6, 6, 5, 6, 5, 4, 5, 8, 9, 8, 8, 7, 6, 7, 11, 11, 11, 12, 12, 11, 12, 13, 10, 9, 11, 11, 9, 9, 10, 8, 8, 9, 10, 8, 7, 7, 7, 8, 8, 7, 6, 5, 5, 7, 8, 7, 5, 6, 10, 9, 8, 8, 8, 8, 8, 8 }	; t

N163(121) { 7, 8, 8, 9, 9, 9, 10, 10, 9, 8, 7, 8, 9, 9, 8, 7, 7, 7, 6, 7, 8, 8, 8, 8, 9, 9, 8, 9, 9, 8, 8, 9, 10, 9, 8, 9, 10, 10, 9, 8, 7, 8, 8, 7, 6, 7, 8, 9, 8, 7, 7, 7, 7, 7, 6, 6, 6, 7, 8, 8, 8, 8, 7, 6 }	; tt

N163(122) { 8, 9, 9, 9, 10, 10, 10, 10, 10, 9, 7, 6, 5, 6, 8, 8, 8, 8, 8, 8, 8, 8, 7, 6, 7, 8, 8, 7, 7, 8, 8, 9, 9, 9, 9, 9, 9, 10, 9, 9, 7, 6, 7, 8, 8, 8, 7, 8, 8, 8, 8, 9, 9, 9, 8, 8, 8, 7, 6, 5, 5, 5, 6, 7 }	; ttt

N163(0) { 7, 9, 10, 12, 13, 14, 15, 15, 15, 15, 15, 15, 15, 15, 15, 15, 15, 15, 15, 14, 13, 13, 12, 11, 10, 10, 9, 9, 8, 8, 7, 7, 6, 6, 5, 5, 5, 5, 4, 4, 4, 4, 3, 3, 3, 3, 2, 2, 1, 1, 1, 1, 0, 0, 0, 0, 0, 0, 0, 2, 3, 4, 5, 6 }	; n

N163(130) { 8, 8, 8, 8, 8, 8, 8, 8, 8, 8, 8, 8, 8, 8, 8, 8, 8, 8, 8, 8, 8, 8, 8, 8, 8, 8, 8, 8, 8, 8, 8, 8, 8, 8, 8, 8, 8, 8, 8, 8, 8, 8, 8, 8, 8, 8, 8, 8, 8, 8, 8, 8, 8, 7, 7, 7, 8, 8, 8, 8, 8, 8, 8, 8 }	; h

N163(131) { 7, 8, 8, 8, 8, 8, 9, 9, 9, 8, 8, 7, 7, 6, 6, 7, 7, 7, 8, 9, 9, 9, 9, 9, 8, 7, 7, 8, 8, 7, 7, 7, 7, 7, 8, 8, 8, 9, 9, 9, 9, 8, 8, 8, 7, 7, 7, 7, 7, 8, 8, 8, 8, 8, 8, 8, 8, 9, 9, 9, 8, 8, 8, 8 }	; hh

N163(132) { 7, 8, 8, 8, 9, 8, 7, 7, 8, 7, 7, 7, 6, 5, 6, 8, 9, 9, 10, 10, 10, 9, 8, 8, 7, 6, 6, 7, 7, 7, 7, 7, 7, 7, 8, 8, 8, 7, 7, 8, 8, 8, 9, 9, 8, 7, 6, 6, 7, 8, 8, 8, 8, 8, 7, 7, 8, 8, 8, 7, 7, 7, 7, 7 }	; hhh

N163(6) { 8, 8, 9, 9, 10, 10, 11, 11, 12, 12, 13, 13, 14, 14, 14, 14, 14, 14, 14, 14, 14, 14, 14, 14, 13, 13, 12, 12, 11, 11, 10, 10, 9, 8, 8, 7, 6, 6, 5, 4, 4, 3, 3, 2, 2, 1, 1, 1, 1, 1, 0, 0, 0, 1, 1, 1, 2, 2, 3, 3, 4, 4, 5, 6 }	; m

N163(140) { 8, 9, 10, 12, 13, 14, 14, 15, 15, 15, 15, 14, 14, 13, 13, 12, 11, 11, 10, 10, 9, 9, 9, 9, 9, 9, 9, 9, 10, 10, 10, 11, 11, 11, 11, 11, 11, 10, 10, 10, 9, 9, 8, 7, 6, 6, 5, 4, 4, 3, 2, 2, 1, 1, 1, 0, 0, 0, 0, 1, 2, 3, 5, 6 }	; l

N163(105) { 8, 9, 11, 12, 11, 9, 8, 8, 10, 10, 8, 5, 4, 5, 8, 10, 9, 8, 8, 8, 9, 10, 11, 11, 9, 7, 6, 6, 5, 5, 5, 4, 6, 7, 9, 11, 13, 11, 9, 8, 8, 7, 7, 9, 9, 8, 7, 5, 3, 5, 7, 11, 13, 12, 8, 7, 10, 11, 11, 8, 6, 3, 2, 4 }	; g

N163(106) { 8, 9, 11, 12, 11, 9, 8, 8, 10, 10, 8, 5, 4, 5, 8, 10, 9, 8, 8, 8, 9, 10, 11, 11, 9, 7, 6, 6, 5, 5, 5, 4, 6, 7, 9, 11, 13, 11, 9, 8, 8, 7, 7, 9, 9, 8, 7, 5, 3, 5, 7, 11, 13, 12, 8, 7, 10, 11, 11, 8, 6, 3, 2, 4 }	; gg

N163(115) { 6, 5, 5, 10, 14, 12, 7, 5, 6, 9, 9, 5, 8, 11, 11, 5, 8, 12, 8, 8, 12, 11, 7, 8, 10, 6, 4, 5, 9, 9, 7, 6, 7, 7, 9, 14, 13, 10, 10, 9, 5, 3, 6, 10, 13, 13, 8, 3, 7, 11, 6, 6, 11, 15, 8, 4, 7, 9, 10, 9, 6, 7, 10, 10 }	; z

N163(116) { 8, 10, 10, 10, 11, 10, 6, 6, 11, 13, 10, 8, 8, 8, 9, 9, 11, 11, 10, 8, 8, 6, 4, 7, 10, 9, 8, 7, 7, 7, 7, 7, 8, 8, 6, 6, 8, 9, 9, 10, 9, 9, 11, 10, 10, 12, 14, 10, 8, 8, 7, 6, 8, 10, 9, 8, 5, 3, 4, 8, 10, 8, 5, 5 }	; zz

N163(125) { 8, 11, 12, 10, 11, 12, 8, 6, 5, 5, 4, 5, 4, 3, 4, 8, 9, 8, 8, 6, 5, 7, 12, 13, 12, 14, 14, 13, 14, 15, 11, 10, 13, 13, 10, 9, 11, 9, 8, 9, 11, 8, 7, 6, 7, 8, 8, 7, 5, 4, 4, 7, 9, 7, 3, 6, 11, 10, 9, 9, 9, 8, 8, 8 }	; d

N163(126) { 7, 9, 10, 11, 11, 12, 13, 14, 12, 9, 7, 9, 12, 12, 9, 6, 6, 6, 5, 6, 9, 8, 8, 10, 12, 11, 10, 11, 11, 8, 9, 13, 13, 11, 10, 11, 13, 13, 11, 8, 5, 8, 9, 7, 5, 5, 9, 11, 9, 7, 6, 6, 6, 6, 5, 3, 4, 7, 8, 9, 9, 9, 7, 5 }	; dd

N163(135) { 8, 9, 10, 11, 12, 14, 14, 14, 14, 12, 11, 10, 10, 10, 10, 10, 11, 11, 11, 9, 8, 9, 9, 8, 9, 11, 13, 13, 13, 12, 11, 10, 9, 8, 8, 9, 10, 11, 12, 13, 12, 10, 10, 11, 11, 11, 12, 13, 12, 12, 11, 10, 9, 7, 6, 7, 10, 11, 12, 14, 14, 13, 12, 11 }	; b/p

N163(136) { 7, 8, 9, 10, 10, 10, 11, 12, 11, 10, 8, 7, 6, 5, 5, 5, 6, 7, 9, 11, 11, 11, 11, 11, 8, 7, 7, 8, 8, 7, 7, 7, 6, 7, 8, 9, 10, 11, 12, 12, 11, 10, 9, 8, 7, 7, 7, 7, 7, 8, 9, 8, 8, 8, 8, 8, 9, 11, 11, 11, 10, 8, 8, 8 }	; bb/pp



// --- init FDS voice

// [x] is adjust instruments use zero frame

$x  { q0 Ev301 } $xb { q2 Ev303 }
$xb1 { q0 Ev303 } $-xb1 { q0 Ev302 }
$xb2 { q2 Ev304 } $xb2- { q0 Ev304 } $-xb2- { q0 Ev302 } $-xb2 { q0 Ev302 }
$x- { q0 Ev301 } $-x- { q0 Ev302 } $-x { q2 Ev302 }


// main phonetics use 1 frame and extendable
// [-] as legato (flat dynamics)

$a { $xb @FC1 c%1^ }  $i { $xb @FC2 c%1^ }  $u { $xb @FC3 c%1^ }
$e { $xb @FC4 c%1^ }  $o { $xb @FC5 c%1^ }  $n { $xb @FC0 c%1^ }

$a- { $x- @FC1 c%1^ }  $i- { $x- @FC2 c%1^ }  $u- { $x- @FC3 c%1^ }
$e- { $x- @FC4 c%1^ }  $o- { $x- @FC5 c%1^ }  $n- { $x- @FC0 c%1^ }

$-a- { $-x- @FC1 c%1^ }  $-i- { $-x- @FC2 c%1^ }  $-u- { $-x- @FC3 c%1^ }
$-e- { $-x- @FC4 c%1^ }  $-o- { $-x- @FC5 c%1^ }  $-n- { $-x- @FC0 c%1^ }

$-a { $-x @FC1 c%1^ }  $-i { $-x @FC2 c%1^ }  $-u { $-x @FC3 c%1^ }
$-e { $-x @FC4 c%1^ }  $-o { $-x @FC5 c%1^ }  $-n { $-x @FC0 c%1^ }


// morphing main phonetic use 2 frame and extendable
// [-] as legato (flat dynamics)

$ia   { $xb1  @FC12 c%2 $xb2 @FC1 c }
$ia-  { $xb1  @FC12 c%2 $xb2- @FC1 c }
$-ia- { $-xb1 @FC12 c%2 $-xb2- @FC1 c }
$-ia  { $-xb1 @FC12 c%2 $-xb2 q2 @FC1 c }
$ai   { $xb1  @FC12 c%2 $xb2 @FC2 c }
$ai-  { $xb1  @FC12 c%2 $xb2- @FC2 c }
$-ai- { $-xb1 @FC12 c%2 $-xb2- @FC2 c }
$-ai  { $-xb1 @FC12 c%2 $-xb2 q2 @FC2 c }

$ua   { $xb1  @FC13 c%2 $xb2 @FC1 c }
$ua-  { $xb1  @FC13 c%2 $xb2- @FC1 c }
$-ua- { $-xb1 @FC13 c%2 $-xb2- @FC1 c }
$-ua  { $-xb1 @FC13 c%2 $-xb2 q2 @FC1 c }
$au   { $xb1  @FC13 c%2 $xb2 @FC3 c }
$au-  { $xb1  @FC13 c%2 $xb2- @FC3 c }
$-au- { $-xb1 @FC13 c%2 $-xb2- @FC3 c }
$-au  { $-xb1 @FC13 c%2 $-xb2 q2 @FC3 c }

$ea   { $xb1  @FC14 c%2 $xb2 @FC1 c }
$ea-  { $xb1  @FC14 c%2 $xb2- @FC1 c }
$-ea- { $-xb1 @FC14 c%2 $-xb2- @FC1 c }
$-ea  { $-xb1 @FC14 c%2 $-xb2 q2 @FC1 c }
$ae   { $xb1  @FC14 c%2 $xb2 @FC4 c }
$ae-  { $xb1  @FC14 c%2 $xb2- @FC4 c }
$-ae- { $-xb1 @FC14 c%2 $-xb2- @FC4 c }
$-ae  { $-xb1 @FC14 c%2 $-xb2 q2 @FC4 c }

$oa   { $xb1  @FC15 c%2 $xb2 @FC1 c }
$oa-  { $xb1  @FC15 c%2 $xb2- @FC1 c }
$-oa- { $-xb1 @FC15 c%2 $-xb2- @FC1 c }
$-oa  { $-xb1 @FC15 c%2 $-xb2 q2 @FC1 c }
$ao   { $xb1  @FC15 c%2 $xb2 @FC5 c }
$ao-  { $xb1  @FC15 c%2 $xb2- @FC5 c }
$-ao- { $-xb1 @FC15 c%2 $-xb2- @FC5 c }
$-ao  { $-xb1 @FC15 c%2 $-xb2 q2 @FC5 c }

$ui   { $xb1  @FC23 c%2 $xb2 @FC2 c }
$ui-  { $xb1  @FC23 c%2 $xb2- @FC2 c }
$-ui- { $-xb1 @FC23 c%2 $-xb2- @FC2 c }
$-ui  { $-xb1 @FC23 c%2 $-xb2 q2 @FC2 c }
$iu   { $xb1  @FC23 c%2 $xb2 @FC3 c }
$iu-  { $xb1  @FC23 c%2 $xb2- @FC3 c }
$-iu- { $-xb1 @FC23 c%2 $-xb2- @FC3 c }
$-iu  { $-xb1 @FC23 c%2 $-xb2 q2 @FC3 c }

$ei   { $xb1  @FC24 c%2 $xb2 @FC2 c }
$ei-  { $xb1  @FC24 c%2 $xb2- @FC2 c }
$-ei- { $-xb1 @FC24 c%2 $-xb2- @FC2 c }
$-ei  { $-xb1 @FC24 c%2 $-xb2 q2 @FC2 c }
$ie   { $xb1  @FC24 c%2 $xb2 @FC4 c }
$ie-  { $xb1  @FC24 c%2 $xb2- @FC4 c }
$-ie- { $-xb1 @FC24 c%2 $-xb2- @FC4 c }
$-ie  { $-xb1 @FC24 c%2 $-xb2 q2 @FC4 c }

$oi   { $xb1  @FC25 c%2 $xb2 @FC2 c }
$oi-  { $xb1  @FC25 c%2 $xb2- @FC2 c }
$-oi- { $-xb1 @FC25 c%2 $-xb2- @FC2 c }
$-oi  { $-xb1 @FC25 c%2 $-xb2 q2 @FC2 c }
$io   { $xb1  @FC25 c%2 $xb2 @FC5 c }
$io-  { $xb1  @FC25 c%2 $xb2- @FC5 c }
$-io- { $-xb1 @FC25 c%2 $-xb2- @FC5 c }
$-io  { $-xb1 @FC25 c%2 $-xb2 q2 @FC5 c }

$eu   { $xb1  @FC34 c%2 $xb2 @FC3 c }
$eu-  { $xb1  @FC34 c%2 $xb2- @FC3 c }
$-eu- { $-xb1 @FC34 c%2 $-xb2- @FC3 c }
$-eu  { $-xb1 @FC34 c%2 $-xb2 q2 @FC3 c }
$ue   { $xb1  @FC34 c%2 $xb2 @FC4 c }
$ue-  { $xb1  @FC34 c%2 $xb2- @FC4 c }
$-ue- { $-xb1 @FC34 c%2 $-xb2- @FC4 c }
$-ue  { $-xb1 @FC34 c%2 $-xb2 q2 @FC4 c }

$ou   { $xb1  @FC35 c%2 $xb2 @FC3 c }
$ou-  { $xb1  @FC35 c%2 $xb2- @FC3 c }
$-ou- { $-xb1 @FC35 c%2 $-xb2- @FC3 c }
$-ou  { $-xb1 @FC35 c%2 $-xb2 q2 @FC3 c }
$uo   { $xb1  @FC35 c%2 $xb2 @FC5 c }
$uo-  { $xb1  @FC35 c%2 $xb2- @FC5 c }
$-uo- { $-xb1 @FC35 c%2 $-xb2- @FC5 c }
$-uo  { $-xb1 @FC35 c%2 $-xb2 q2 @FC5 c }

$oe   { $xb1  @FC45 c%2 $xb2 @FC4 c }
$oe-  { $xb1  @FC45 c%2 $xb2- @FC4 c }
$-oe- { $-xb1 @FC45 c%2 $-xb2- @FC4 c }
$-oe  { $-xb1 @FC45 c%2 $-xb2 q2 @FC4 c }
$eo   { $xb1  @FC45 c%2 $xb2 @FC5 c }
$eo-  { $xb1  @FC45 c%2 $xb2- @FC5 c }
$-eo- { $-xb1 @FC45 c%2 $-xb2- @FC5 c }
$-eo  { $-xb1 @FC45 c%2 $-xb2 q2 @FC5 c }


// sub phonetics, alphabets & [.] use 1 frame

$y. { $xb @FC2 c%2 }
$n. { $xb @FC0 c%2 }  $ny.. { $n. $y. }
$m. { $xb @FC6 c%2 }  $my.. { $m. $y. }
$w. { $xb @FC3 c%2 }  $wy.. { $w. $y. }

$k.. { $x @FC100 c%1 @FC101 c%1 @FC102 c%1  }
$ky... { $k.. $y. }  $kw... { $k.. $w. }
$g.. { $x @FM2@FF1024 <@FC105 c%1 @FC106 c%1 @FC102 c%1> @FF0 }
$gy... { $g.. $y. }  $gw... { $g.. $w. }
$ng. { $xb @FC0 c%1 <@FC105 c%1 @FC106 c%1> }
$ngy.. { $ng. $y. }  $ngw.. { $ng. $y. }

$s.... { $x @FM3@FF4095 @FC110 c%2 @FC111 c%2 @FC112 c%1 @FF0 }
$sy..... { $x @FM3@FF4095 @FC110 c%2 @FC111 c%1 @FF0 $y. }
$z... { $x @FM3@FF4095 <<@FC115 c%1 @FC115 c%1> @FC112 c%2> @FF0 }
$zy... { $x @FM3@FF4095 <<@FC115 c%1 @FC115 c%1> @FC112 c%2> @FF0 $y. }

$t.... { $x @FC120 c%2 @FC121 c%2 @FC122 c%1 }  $ty..... { $t.... $y. }
$ts... { $x @FC121 c%1 @FM3@FF4095 @FC116 c%2 @FC112 c%2 @FF0 }
$tsy.... { $ts... $y. }

$d.. { $x @FM1@FF1 <<@FC125 c%1> @FC126 c%1> @FC122 c%1 @FF0 }  $dy... { $d.. $y. }
$dz.. { $x <<@FC125 c%1> @FC126 c%1> @FC116 c%2 }  $dzy... { $dz.. $y. }

$h.... { $x @FC130 c%2 @FC131 c%2 @FC132 c%1 }
$hy... { $x @FC130 c%2 @FC131 c%1 $y. }
$f...  { $x < @FC130 c%2 @FC131 c%1 > $xb @FC3 c%1 }
$fy... { $x < @FC130 c%2 @FC131 c%1 > Ev303 @FC3 c%1 Ev301 @FC2 c%1 }

$b.... { $x < @FC135 c%2 > @FC136 c%2 @FC132 c%1 }
$by.... { $x < @FC135 c%2 > @FC136 c%2 $y. }
$p.... { $x @FC135 c%2 r%2 @FC132 c%1 }  $py.... { $x @FC135 c%2 r%2 $y. }

$l. { $x @FC140 c%2 }  $ly.. { $l. $y. }
$r.... { $w. $l. @FC3 c%1 }  $ry.... { $w. $l. $y. }



// --- init N16x voice

// [_] as N16X voice macro

// [x] is adjust instruments use zero frame

$_x  { q0 Ev1601 } $_xb { q2 Ev1603 }
$_xb1 { q0 Ev1603 } $_-xb1 { q0 Ev1602 }
$_xb2 { q2 Ev1604 } $_xb2- { q0 Ev1604 } $_-xb2- { q0 Ev1602 } $_-xb2 { q0 Ev1602 }
$_x- { q0 Ev1601 } $_-x- { q0 Ev1602 } $_-x { q2 Ev1602 }


// main phonetics use 1 frame and extendable
// [-] as legato (flat dynamics)

$_a { $_xb @NL0,1 c%1^ }  $_i { $_xb @NL0,2 c%1^ }  $_u { $_xb @NL0,3 c%1^ }
$_e { $_xb @NL0,4 c%1^ }  $_o { $_xb @NL0,5 c%1^ }  $_n { $_xb @NL0,0 c%1^ }

$_a- { $_x- @NL0,1 c%1^ }  $_i- { $_x- @NL0,2 c%1^ }  $_u- { $_x- @NL0,3 c%1^ }
$_e- { $_x- @NL0,4 c%1^ }  $_o- { $_x- @NL0,5 c%1^ }  $_n- { $_x- @NL0,0 c%1^ }

$_-a- { $_-x- @NL0,1 c%1^ }  $_-i- { $_-x- @NL0,2 c%1^ }  $_-u- { $_-x- @NL0,3 c%1^ }
$_-e- { $_-x- @NL0,4 c%1^ }  $_-o- { $_-x- @NL0,5 c%1^ }  $_-n- { $_-x- @NL0,0 c%1^ }

$_-a { $_-x @NL0,1 c%1^ }  $_-i { $_-x @NL0,2 c%1^ }  $_-u { $_-x @NL0,3 c%1^ }
$_-e { $_-x @NL0,4 c%1^ }  $_-o { $_-x @NL0,5 c%1^ }  $_-n { $_-x @NL0,0 c%1^ }


// morphing main phonetic use 2 frame and extendable
// [-] as legato (flat dynamics)

$_ia   { $_xb1  @NL0,12 c%2 $_xb2 @NL0,1 c }
$_ia-  { $_xb1  @NL0,12 c%2 $_xb2- @NL0,1 c }
$_-ia- { $_-xb1 @NL0,12 c%2 $_-xb2- @NL0,1 c }
$_-ia  { $_-xb1 @NL0,12 c%2 $_-xb2 q2 @NL0,1 c }
$_ai   { $_xb1  @NL0,12 c%2 $_xb2 @NL0,2 c }
$_ai-  { $_xb1  @NL0,12 c%2 $_xb2- @NL0,2 c }
$_-ai- { $_-xb1 @NL0,12 c%2 $_-xb2- @NL0,2 c }
$_-ai  { $_-xb1 @NL0,12 c%2 $_-xb2 q2 @NL0,2 c }

$_ua   { $_xb1  @NL0,13 c%2 $_xb2 @NL0,1 c }
$_ua-  { $_xb1  @NL0,13 c%2 $_xb2- @NL0,1 c }
$_-ua- { $_-xb1 @NL0,13 c%2 $_-xb2- @NL0,1 c }
$_-ua  { $_-xb1 @NL0,13 c%2 $_-xb2 q2 @NL0,1 c }
$_au   { $_xb1  @NL0,13 c%2 $_xb2 @NL0,3 c }
$_au-  { $_xb1  @NL0,13 c%2 $_xb2- @NL0,3 c }
$_-au- { $_-xb1 @NL0,13 c%2 $_-xb2- @NL0,3 c }
$_-au  { $_-xb1 @NL0,13 c%2 $_-xb2 q2 @NL0,3 c }

$_ea   { $_xb1  @NL0,14 c%2 $_xb2 @NL0,1 c }
$_ea-  { $_xb1  @NL0,14 c%2 $_xb2- @NL0,1 c }
$_-ea- { $_-xb1 @NL0,14 c%2 $_-xb2- @NL0,1 c }
$_-ea  { $_-xb1 @NL0,14 c%2 $_-xb2 q2 @NL0,1 c }
$_ae   { $_xb1  @NL0,14 c%2 $_xb2 @NL0,4 c }
$_ae-  { $_xb1  @NL0,14 c%2 $_xb2- @NL0,4 c }
$_-ae- { $_-xb1 @NL0,14 c%2 $_-xb2- @NL0,4 c }
$_-ae  { $_-xb1 @NL0,14 c%2 $_-xb2 q2 @NL0,4 c }

$_oa   { $_xb1  @NL0,15 c%2 $_xb2 @NL0,1 c }
$_oa-  { $_xb1  @NL0,15 c%2 $_xb2- @NL0,1 c }
$_-oa- { $_-xb1 @NL0,15 c%2 $_-xb2- @NL0,1 c }
$_-oa  { $_-xb1 @NL0,15 c%2 $_-xb2 q2 @NL0,1 c }
$_ao   { $_xb1  @NL0,15 c%2 $_xb2 @NL0,5 c }
$_ao-  { $_xb1  @NL0,15 c%2 $_xb2- @NL0,5 c }
$_-ao- { $_-xb1 @NL0,15 c%2 $_-xb2- @NL0,5 c }
$_-ao  { $_-xb1 @NL0,15 c%2 $_-xb2 q2 @NL0,5 c }

$_ui   { $_xb1  @NL0,23 c%2 $_xb2 @NL0,2 c }
$_ui-  { $_xb1  @NL0,23 c%2 $_xb2- @NL0,2 c }
$_-ui- { $_-xb1 @NL0,23 c%2 $_-xb2- @NL0,2 c }
$_-ui  { $_-xb1 @NL0,23 c%2 $_-xb2 q2 @NL0,2 c }
$_iu   { $_xb1  @NL0,23 c%2 $_xb2 @NL0,3 c }
$_iu-  { $_xb1  @NL0,23 c%2 $_xb2- @NL0,3 c }
$_-iu- { $_-xb1 @NL0,23 c%2 $_-xb2- @NL0,3 c }
$_-iu  { $_-xb1 @NL0,23 c%2 $_-xb2 q2 @NL0,3 c }

$_ei   { $_xb1  @NL0,24 c%2 $_xb2 @NL0,2 c }
$_ei-  { $_xb1  @NL0,24 c%2 $_xb2- @NL0,2 c }
$_-ei- { $_-xb1 @NL0,24 c%2 $_-xb2- @NL0,2 c }
$_-ei  { $_-xb1 @NL0,24 c%2 $_-xb2 q2 @NL0,2 c }
$_ie   { $_xb1  @NL0,24 c%2 $_xb2 @NL0,4 c }
$_ie-  { $_xb1  @NL0,24 c%2 $_xb2- @NL0,4 c }
$_-ie- { $_-xb1 @NL0,24 c%2 $_-xb2- @NL0,4 c }
$_-ie  { $_-xb1 @NL0,24 c%2 $_-xb2 q2 @NL0,4 c }

$_oi   { $_xb1  @NL0,25 c%2 $_xb2 @NL0,2 c }
$_oi-  { $_xb1  @NL0,25 c%2 $_xb2- @NL0,2 c }
$_-oi- { $_-xb1 @NL0,25 c%2 $_-xb2- @NL0,2 c }
$_-oi  { $_-xb1 @NL0,25 c%2 $_-xb2 q2 @NL0,2 c }
$_io   { $_xb1  @NL0,25 c%2 $_xb2 @NL0,5 c }
$_io-  { $_xb1  @NL0,25 c%2 $_xb2- @NL0,5 c }
$_-io- { $_-xb1 @NL0,25 c%2 $_-xb2- @NL0,5 c }
$_-io  { $_-xb1 @NL0,25 c%2 $_-xb2 q2 @NL0,5 c }

$_eu   { $_xb1  @NL0,34 c%2 $_xb2 @NL0,3 c }
$_eu-  { $_xb1  @NL0,34 c%2 $_xb2- @NL0,3 c }
$_-eu- { $_-xb1 @NL0,34 c%2 $_-xb2- @NL0,3 c }
$_-eu  { $_-xb1 @NL0,34 c%2 $_-xb2 q2 @NL0,3 c }
$_ue   { $_xb1  @NL0,34 c%2 $_xb2 @NL0,4 c }
$_ue-  { $_xb1  @NL0,34 c%2 $_xb2- @NL0,4 c }
$_-ue- { $_-xb1 @NL0,34 c%2 $_-xb2- @NL0,4 c }
$_-ue  { $_-xb1 @NL0,34 c%2 $_-xb2 q2 @NL0,4 c }

$_ou   { $_xb1  @NL0,35 c%2 $_xb2 @NL0,3 c }
$_ou-  { $_xb1  @NL0,35 c%2 $_xb2- @NL0,3 c }
$_-ou- { $_-xb1 @NL0,35 c%2 $_-xb2- @NL0,3 c }
$_-ou  { $_-xb1 @NL0,35 c%2 $_-xb2 q2 @NL0,3 c }
$_uo   { $_xb1  @NL0,35 c%2 $_xb2 @NL0,5 c }
$_uo-  { $_xb1  @NL0,35 c%2 $_xb2- @NL0,5 c }
$_-uo- { $_-xb1 @NL0,35 c%2 $_-xb2- @NL0,5 c }
$_-uo  { $_-xb1 @NL0,35 c%2 $_-xb2 q2 @NL0,5 c }

$_oe   { $_xb1  @NL0,45 c%2 $_xb2 @NL0,4 c }
$_oe-  { $_xb1  @NL0,45 c%2 $_xb2- @NL0,4 c }
$_-oe- { $_-xb1 @NL0,45 c%2 $_-xb2- @NL0,4 c }
$_-oe  { $_-xb1 @NL0,45 c%2 $_-xb2 q2 @NL0,4 c }
$_eo   { $_xb1  @NL0,45 c%2 $_xb2 @NL0,5 c }
$_eo-  { $_xb1  @NL0,45 c%2 $_xb2- @NL0,5 c }
$_-eo- { $_-xb1 @NL0,45 c%2 $_-xb2- @NL0,5 c }
$_-eo  { $_-xb1 @NL0,45 c%2 $_-xb2 q2 @NL0,5 c }


// sub phonetics, alphabets & [.] use 1 frame

$_y. { $_xb @NL0,2 c%2 }
$_n. { $_xb @NL0,0 c%2 }  $_ny.. { $_n. $_y. }
$_m. { $_xb @NL0,6 c%2 }  $_my.. { $_m. $_y. }
$_w. { $_xb @NL0,3 c%2 }  $_wy.. { $_w. $_y. }

$_k.. { $_x @NL0,100 c%1 @NL0,101 c%1 @NL0,102 c%1  }
$_ky... { $_k.. $_y. }  $_kw... { $_k.. $_w. }
$_g.. { $_x <@NL0,105 c%1 @NL0,106 c%1 @NL0,102 c%1> }
$_gy... { $_g.. $_y. }  $_gw... { $_g.. $_w. }
$_ng. { $_xb @NL0,0 c%1 <@NL0,105 c%1 @NL0,106 c%1> }
$_ngy.. { $_ng. $_y. }  $_ngw.. { $_ng. $_y. }

$_s.... { $_x @NL0,110 c%2 @NL0,111 c%2 @NL0,112 c%1 }
$_sy..... { $_x @NL0,110 c%2 @NL0,111 c%1 $_y. }
$_z... { $_x <<@NL0,115 c%1 @NL0,115 c%1> @NL0,112 c%2> }
$_zy... { $_x <<@NL0,115 c%1 @NL0,115 c%1> @NL0,112 c%2> $_y. }

$_t.... { $_x @NL0,120 c%2 @NL0,121 c%2 @NL0,122 c%1 }  $_ty..... { $_t.... $_y. }
$_ts... { $_x <<@NL0,121 c%1> @NL0,116 c%2> @NL0,112 c%2 }
$_tsy.... { $_ts... $_y. }

$_d.. { $_x <<@NL0,125 c%1> @NL0,126 c%1> @NL0,122 c%1 }  $_dy... { $_d.. $_y. }
$_dz.. { $_x <<@NL0,125 c%1> @NL0,126 c%1> @NL0,116 c%2 }  $_dzy... { $_dz.. $_y. }

$_h.... { $_x @NL0,130 c%2 @NL0,131 c%2 @NL0,132 c%1 }
$_hy... { $_x @NL0,130 c%2 @NL0,131 c%1 $_y. }
$_f...  { $_x < @NL0,130 c%2 @NL0,131 c%1 > $_xb @NL0,3 c%1 }
$_fy... { $_x < @NL0,130 c%2 @NL0,131 c%1 > Ev303 @NL0,3 c%1 Ev301 @NL0,2 c%1 }

$_b.... { $_x < @NL0,135 c%2 @NL0,136 c%2 > @NL0,132 c%1 }
$_by.... { $_x < @NL0,135 c%2 @NL0,136 c%2 > $_y. }
$_p.... { $_x @NL0,135 c%2 r%2 @NL0,132 c%1 }  $_py.... { $_x @NL0,135 c%2 r%2 $_y. }

$_l. { $_x @NL0,140 c%2 }  $_ly.. { $_l. $_y. }
$_r.... { $_w. $_l. @NL0,3 c%1 }  $_ry.... { $_w. $_l. $_y. }


// harmonics only N16x
// c or C as main phonetics
// q as sub phonetics

$Cholus { @NS0,64 v15 Em300 Ev301 }

$_q. { $_x c%2 }
$_q.. { $_x c%2 c%1 }
$_q... { $_x c%2 c%2 }
$_q.... { $_x c%2 c%2 c%1 }
$_q..... { $_x c%2 c%2 c%2 }
$_q...... { $_x c%2 c%2 c%2 c%1 }

$_c. { $_xb c%2 }
$_cq. { $_xb c%2 $_x c%1 }
$_cc.. { $_xb c%2 c%2 }

$_qc. { $_x c%1 $_c. }
$_qc.. { $_x c%2 $_c. }
$_qc... { $_x c%2 c%1 $_c. }
$_qc.... { $_x c%2 c%2 $_c. }
$_qc..... { $_x c%2 c%2 c%1 $_c. }

$_C { $_xb c%1^ } $_C- { $_x- c%1^ } $_-C- { $_-x- c%1^ } $_-C { $_-x c%1^ }

$_CC { $_xb1 c%2 $_xb2 c } $_CC- { $_xb1 c%2 $_xb2- c }
$_-CC- { $_-xb1 c%2 $_-xb2- c } $_-CC { $_-xb1 c%2 $_-xb2 q2 c }


// voice

Envelop(300){ 0 0 L -1 -2 -3 -4 -5 -6 -7 -6 -5 -4 -3 -2 -1 0 0 }
Envelop(301){ 15 15 12 L 9 R 6 3 2 2 1 1 1 1 1 L 0 }
Envelop(302){          L 9 R 6 3 2 2 1 1 1 1 1 L 0 }
Envelop(303){  9 15 12 L 9 R 6 3 2 2 1 1 1 1 1 L 0 }
Envelop(304){       12 L 9 R 6 3 2 2 1 1 1 1 1 L 0 }


// vocal_sub ----------------------------------------------------------------

Envelop(1601){ 7 7 5 L 3 R 2 2 1 1 1 1 1 L 0 }
Envelop(1602){       L 3 R 2 2 1 1 1 1 1 L 0 }
Envelop(1603){ 4 7 5 L 3 R 2 2 1 1 1 1 1 L 0 }
Envelop(1604){     5 L 3 R 2 2 1 1 1 1 1 L 0 }


// --- S5B noise ---

Envelop(2600) { 3 6 5 3 1 L 0 R L 0 } // s
Envelop(2610) { 4 7 6 4 2 L 0 R L 0 } // s
Envelop(2620) { 5 8 7 6 3 L 0 R L 0 } // s

Envelop(2601) { 1 2 3 2 1 L 0 R L 0 } // h
Envelop(2611) { 1 3 4 3 1 L 0 R L 0 } // h
Envelop(2621) { 2 4 5 4 2 L 0 R L 0 } // h

Envelop(2602) { 3 7 3 L 0 R L 0 } // ts
Envelop(2612) { 4 8 4 L 0 R L 0 } // ts
Envelop(2622) { 5 9 5 L 0 R L 0 } // ts


// assist sub phonetics [s, h, ts]

$S { v15 Ev2600 @3 c8 } $H { v15 Ev2601 @12 c8 } $TS { v15 Ev2602 @6 c8 }

$SS { v15 Ev2610 @3 c8 } $HH { v15 Ev2611 @12 c8 } $TTS { v15 Ev2612 @6 c8 }

$SSS { v15 Ev2620 @3 c8 } $HHH { v15 Ev2621 @12 c8 } $TTTS { v15 Ev2622 @6 c8 }



    
// intro
// ........ ........x7

$Vocal { v15 Em300 Ev301 o6 }


// set note use [k] command.

// c =k0 c+=k1 d =k2 d+=k3 e =k4  f=k5
// f+=k6 g =k7 g+=k8 a =k9 a+=k10 b=k11

// c =k0 d-=k1 d =k2 e-=k3 e =k4  f=k5
// g-=k6 g =k7 a-=k8 a =k9 b-=k10 b=k11

// set main phonetics append durations, use [%n] command


// example -----------------------------------

$vocal..1-a1_ { $Vocal

// ...... tsu me 
k10 <$ts...$u%16 r%16>
k0  $m.$e%16 r%16

// .... ta i ha na .......
k2 $t....$a%6 r%8
k5 $i%5 r%8
k0 $h....$a%1 r%8
k5   $n.$a%12


// .... hu i te i ru
<
k10 $h....$u%6 r%4
k9 $i%10 r%4
k7 $t....$e%6 r%4
k5 $l.$i%4 r%4
k7 $r....$u%4 r%4
>

r4



}



$_vocal_sub..1-a1_ {

// ...... ma ta 
r1

// .... a e ma su ne .......
r1r1

// .... i no li no yo ... na. ..
r1r1

v15 Em300 Ev1601 @NS0,64 o8

// ya ku so ku o no ko si te .......
k3 $_y.$_ia%3 r%8
   $_k..$_-u%1 r%10
   $_s....$_o%2 r%7
   $_k..$_-u%1 r%10
   $_-o-%6 r%8
   $_n.$_-o%4 r%8
   $_k..$_o%3 r%8
   $_s....$_-i%1 r%8
k0 $_t....$_e%9^%4
r2.^%11

// c=k0 d-=k1 e-=k3 f=k5 g-=k7 a-=k8 b-=k10

// ki. e. yu. ku. ha. na. ....
k-2$_k..$_i-%26
k-2$_-ie%28
k5 $_y.$_iu%11 r
k-2$_k..$_u%11 r
k1 $_h....$_a%9 r
k3 $_n.$_a%12 r
r2

// a wa ku .. ho ho e mi ...
k12$_a%6 r%8
k10$_w.$_ua%3 r%8
k8 $_k..$_-u%3 r%8
r
r
k7 $_h....$_o%1 r%8
k12$_h....$_o-%9
   $_-oe-%5 r%8
   $_m.$_i%12 r4.
r2
}



// vocal_cholus -------------------------------------------------------------

$_vocal_cholus..1-a1_ { r1 [r1]8 $Cholus

k5 $_C%6 r%8
k3 $_q.$_CC%3 r%8
k0 $_q..$_-C%3 r%8
r
r
k-2$_q....$_C%1 r%8
k3 $_q....$_C-%9
   $_-CC-%5 r%8
k0 $_c.$_C%12 r4.
r2

}

$subnoise..1a-1 {
r2 rrr$S
r r2..

rr$Hr rrrr
r2

l%8 @0 v1 Ev*
c^%4)c)c)c)c)c)c)
c(c(c(c(c(c(c^%4 l8

rrr$SS
r r2.$H

r4r4r4r4$HHrr4 r4$Hr

rrr rr $HHH$HHHrr r4.
r2
}


BGM(0)

{

    
// --- FDS

TR6 t104 v15o6 // ok
$vocal..1-a1_ 


}