//　明日晴れるかな

TR(1) TEMPO=60 @11 
      l8 o6 l8 e4fgf4e4 c4d4e4r4
               f4e4d4ef+ g4f4e4d4
               c4deg4a>cd4c<b>c4r4
               <b4a4gfedc4r4
TR(2) @11 o5 l8 cegr fa>cr< gb>d<r egbr
                a>cer< df+ar gb>d<bg4r4
                cegr fa>c<r eg+br a>cer<
                dfar gb>dr< cegr cegr