//　ギフト

TR(1) TEMPO=60 @11 
      l8 o6 l8 g+4a4b4>c+4 d+c+<bag+4r4
                a4g+4f+4>c+4<b4.ag+4f+4 
              g+4a4b4>c+4< b+4>c+d+ f+4e4
                d+4c+4<bag+f+ e4r4
TR(2) @11 o5 l8 eg+br <a>c+er <b>d+f+r g+b>d+r<
                <a>c+er <f+a>c+r <b>d+f+d+<b4r4>
              o5  eg+br <a>c+er g+b+>d+<r c+eg+r
                  f+a>c+r< <b>d+f+r eg+bg+e4r4