//　ぬいぐるみ

TR(1) TEMPO=60 @11 
      l8 o6 l8  e4efg4c4>c4<bag4r4
                g4f4edcd e4.fd4r4
                 e4f4g4a4 g+4ab>c4r4 <
                 b4a4gfedc4r4
TR(2) @11 o5 l8 cegr <fa>cr <gb>dr egbr
                <a>cer dfar <gb>d<bg4r4>
                cegr <a>cer eg+br <a>cer
                dfar <gb>dr cegec4r4