 ; MML Template
 
#TITLE Snowing Load
#COMPOSER rana

; Tone Define
@0 = { | 0 , 1 , 2 }

; Volume Define
@v0 = { 15, 14, 13, 12, 11, 10, 9, 8, 7, 6, 5, 4, 3, 2, 1, | 0 }

; Track
ABC t150 v15 

A  L SD1 @2 l8 @v0 @vr1 o5 edc<b>edc<b> gfedgfed
A edc<b>edc<b> agfeagfe
A edcdedcd dc<b>cdc<b>c
A dcdedcdefefgagfe
C  L l8 o4 [f>c<]8 [eb]4 [a>e<]4 [da]4 [g>d<]4 [cg]8