/*
━━━━━━━━━━━━━━━━━━━━━━━━━━━━━━━━
【曲　名】rtune22
【作曲者】rana
【作成日】2023/3/3
━━━━━━━━━━━━━━━━━━━━━━━━━━━━━━━━
リハビリ

━━━━━━━━━━━━━━━━━━━━━━━━━━━━━━━━
*/

//_00:初期設定
TrackName     = {"rtune22"}
Copyright     = {"rana"}
Tempo         = 40;
TimeSignature = 4,4;


TR=1 @11 o3 

TR=2 @11 o5 l8 eg>cegec<g 
