//　朝もや

TR(1) TEMPO=60 @11 
      l8 o6 l8  dgec<g4r4>
                 c4c4<b>cde
                 dgegc4r4
                <b4>c+d+e4d4

                  c4c<bga4b>
                  c4c<b>ed4<b>
                  c4defedc
                  c4<b4>c4r4
TR(2) @11 o5 l8 cegec4r4
                fa>c<a <gb>d<b>
                 cegec4r4
                eg+bg+ <a>c+ec+
                [2 < fa>c<a egbg >]
                 <fa>c<a> dfaf 
                 <gb>d<b> cege