//　新しい展開

TR(1) TEMPO=60 @11 
      l8 o6 l8  eee8.d16efg4 f4edc4r4
                aaagf4ef gfe8.d16e4r4
                c4de<g4r4> c4deg4fe
                a4gfe4d4 c4<b4>c4r4
TR(2) @11 o5 l8 cege fa>c<a gb>d<b cege
                fa>c<a dfaf gb>d<b egbg
                [2 fa>c<a egbg] 
                fa>c<a dfaf <gb>d<b> cege