// 団らん

TR(1) TEMPO=60 @11 
      l8 o6  e4ef+e4g+4 a4g+f+e4r4
             f+4f+ef+4a4 g+4f+4e4d4
             c+4def+4r4 e4f+g+a4r4
            f+4e4d4<b4 a4r4r2
TR(2) @11 o5 l8 <a>c+ec+ df+af+ eg+bg+ c+eg+e
                f+a>c+<a df+af+ eg+bg+ eg+bg+
               <a>c+ec+ df+af+ c+eg+e f+a>c+<a
                <b>df+d eg+bg+ <a>c+ec+ <a>c+ec+