// ゲーセン

TR(1) TEMPO=60 @11 
      l8 o6 g+abg+e4r4 d+ef+ag+4r4
            e4e4f+ed+<b>e4r4d+4r4
            ef+g+ag+4r4 f+ed+<b>e4r4
            f+ef+e d+4<b4> e4r4
TR(2) @11 o5 l8 eg+bg+e4r4 <a>c+ec+ <b>d+f+d+ 
                c+eg+e <b4r4 a>c+ea
    <b64>e64g+64 r64 r16 r8 <b64>d+64f+64 r64 r16 r8
                <a>c+ec+ <b4a4 g+b>d+<b> c+64e64g+64 r64 r16 r8 r4 
                f+a>c+<a <b>d+f+d+ eg+bg+ eg+bg+  