// ご縁

TR(1) TEMPO=60 @11 
      l8 o6 a4ab->c4f4 e4d4c4<b-4
            a4b-4a4b-4>c4d4e4c4<
            a4aga4>c4< b-4>c4d4g4
            f4e4d4e4f4r4
TR(2) @11 o5 l8 fa>c<af4r4 b->dfd< b-4r4
                gb->d<b- gb->dg< cegec4r4
                fa>c<af4r4 b->dfd<b-4r4
                gb->d<b-  cege fa>c<a fa>c<a  