// 居場所

TR(1) TEMPO=60 @11 
      l8 o6 l8 c4def4c4 g4ab>c4r4<
               b4abagfe d4efe4d4
                c4def4g4 g+4ab>c4r4<
                >c4<bagfedc4r4
TR(2) @11 o5 l8 cegec4r4 gb>d<b a>cec<
                fa>c<a dfaf <gb>d<b> <g4r4>
                cegec4r4 eg+bg+ a>cec<
                dfaf <gb>d<b> cegec4r4
