// 怒り

TR(1) TEMPO=60 @11 
      l8 o6 l8 aaab>c4r4 <gggab4r4
                fffga4gfe4r4r2
                d4efe4fga4gfe4d4
                c4defed<b>c4r4r2 
TR(2) @11 o5 l8 a>cec<a4r4 egbge4r4
                fa>c<a dfaf egbge4r4
                fa>c<a gb>d<b
                egbg a>cec<
                df+af+ gb>d<b
                cegec4r4