// 行きつ戻りつ

TR(1) TEMPO=60 @11 
      l8 o6  ef+g+r f+g+ar g+ab>d+ c+4r4<
            babr ag+ar g+f+ef+ e4d+4
             ef+g+a g+ab>c+< b>c+d+a g+4f+4
             e4d+4c+4d+4 e4r4r2
TR(2) @11 o5 l8 eg+bg+ f+a>c+<a g+b>d+<b a>c+ec+<       
               g+b>d+<b f+a>c+<a c+eg+e <b>d+f+d+
                eg+bg+ g+b>d+<b b>d+f+d+< c+eg+e
                f+a>c+<a b>d+f+d+< eg+bg+ eg+bg+