// 起伏

TR(1) TEMPO=60 @11 
      l8 o6 c+<b>c+de4r4 f+edc+<b4a4
            b4>c+4d4f+4 e4r4r2
            g+4g+ab4g+e f+edc+<b4a4
            >c+4d4c+4<b4 a4r4
TR(2) @11 o5 l8 <a>c+ec+<a4r4> df+af+d4r4
                eg+bg+ e4r4 <a>c+ec+a4g+4
                f+a>c+<af+4r4 df+af+d4r4
                <b>df+d eg+bg+ <a>c+ec+ <a4r4>