// 困ったことがあったら

TR(1) TEMPO=60 @11 
      l8 o6 c+4c+de4r4 f+4f+ed4c+4
            <b4b>c+d4f+4 e4r4 r2
            c+4c+de4r4 f+4f+ef+4a4
            b4a4g+4e4 a2 r2
TR(2) @11 o5 l8 <a>c+ec+ <a4>r4
               df+af+d4r4
               eg+bg+e4r4
               <a>c+ec+ <a4r4>
               f+a>c+<a f+4e4
               df+af+ d4c+4
              <b>df+d eg+bg+
              [2 <a>c+ec+]