// 教卓

TR(1) TEMPO=60 @11 
      l8 o6 ef+g+ag+4r4 f+ed+<b>e4r4
          > c+<bab ag+f+g+ f+ed+e f+4r4
            g+4g+ab4>e4 d+4c+4<b4a4
            g+4f+4e4d+4 e4r4
TR(2) @11 o5 l8 eg+bg+ <a>c+ec+ <b>d+f+d+ eg+bg+
               c+eg+e <a>c+ec+ <b>d+f+d+ g+d+ad+
              eg+bg+ f+a>c+<a g+b>d+<b a>c+ec+
              <f+a>c+<a <b>d+f+d+ eg+bg+ eg+bg+ 