// 間

TR(1) TEMPO=60 @11 
      l8 o6 bagfe4r4 fedcd4r4
             cdegfedc<b>cdc<b4>r4
             efgag4r4g+ab>dc4r4
             c<bag fedg>c4r4 
TR(2) @11 o5 l8 cegec4r4 dfafd4r4
                egegegeg <fa>c<af4r4>
                cegec4d4 eg+bg+e4r4 
                dfaf <gb>d<b>
                cegec4r4