// マネージャー

TR(1) TEMPO=60 @11 
      l8 o6 l8 c+def+e4dc+
               c+<bbab4r4>
              c+4e4g+4>c+4<
              bag+a g+f+ed
              c+def+e4r4
              f+g+a+>c+<a+4g+f+
              e4d4c+4<b4a4r4
TR(2) @11 o5 l8 <a>c+ec+a4r4
                df+af+ eg+bg+
               f+a>c+<a eg+bg+
               df+af+ eg+bg+
               <a>c+ec+<a4r4>
               <f+a+>c+<a+f+4r4>
                <b>df+d eg+bg+
                 <a>c+ec+<a4r4>