// テンション　さみしさみたいなタイトルでもいいかも

TR(1) TEMPO=60 @11 
      l8 o6 e4efg4e4 dfa>c<b4r4
           >c4<b>c<b4a4 gfef e4d4
             e4efg4a4 b>c+df+ e4d4
             c4c<b agfdc4r4
TR(2) @11 o5 l8 cegec4r4 fa>c<a gb>d<b
                a>cec< gb>d<b fa>c<a gb>d<b
                cegec4r4 a>c+ec+a4r4<
                dfaf gb>d<b
                cege cege