// 別れ

TR(1) TEMPO=60 @11 
      l8 o6 a4ab->c4<f4 g4gfe4r4
            fede f4ga b-agf e4r4
            b-4b->cd4<b-4>c4<b-4a4g4
            a4g4f4e4 f4r4
TR(2) @11 o5 l8 fa>c<af4r4
               <b->dfd cege
                dfaf cege <b->dfd 
               c64e64g64r64 r16 r8 r4
                <b->dfa
               c64e64g64r64 r16 r8 r4
                <a>ceg 
               d64f64a64r64 r16 r8 r4
                gb->d<b- cege
                fa>c<af4r4 